UI/Discovery-Sharing/SVG/group-smart-filter_outline_24px.svg

<svg width="24" height="24" viewBox="0 0 24 24" fill="none" xmlns="http://www.w3.org/2000/svg">
<path d="M20 11V20H4V4H14.22L14.89 2H4C3.46957 2 2.96086 2.21071 2.58579 2.58579C2.21071 2.96086 2 3.46957 2 4V20C2 20.5304 2.21071 21.0391 2.58579 21.4142C2.96086 21.7893 3.46957 22 4 22H20C20.5304 22 21.0391 21.7893 21.4142 21.4142C21.7893 21.0391 22 20.5304 22 20V9.5L20 11ZM11 11H7V7H11V11ZM17 17H13V13H17V17ZM11 17H7V13H11V17ZM16 7V5L17 2H20L19 5H22V7L18 10V7H16ZM15 11H13V8H15V11Z" fill="#0F1621"/>
</svg>

<svg xmlns="http://www.w3.org/2000/svg" width="24" height="24" viewBox="0 0 24 24"><rect width="24" height="24" style="fill:none"/><path d="M20,11v9H4V4H14.22l.67-2H4A2,2,0,0,0,2,4V20a2,2,0,0,0,2,2H20a2,2,0,0,0,2-2V9.5Zm-9,0H7V7h4Zm6,6H13V13h4Zm-6,0H7V13h4ZM16,7V5l1-3h3L19,5h3V7l-4,3V7Zm-1,4H13V8h2Z"/></svg>
